bundles/org.openhab.ui.habpanel/web/assets/icons/freepik-household/wall.svg

<svg xmlns="http://www.w3.org/2000/svg" viewBox="0 0 57.004 57.004" style="enable-background:new 0 0 57.004 57.004" xml:space="preserve"><path d="M57 23.002v-19H.004v19H0v9h.004v5H0v9h.004v7h57v-30H57zm-54.996 16h4v5h-4v-5zm6 0h9v5h-9v-5zm-6-14h4v5h-4v-5zm22 7h9v5h-9v-5zm11 0h9v5h-9v-5zm11 0H55v5h-8.996v-5zm6-2v-5H55v5h-2.996zm-2 0h-9v-5h9v5zm-11 0h-9v-5h9v5zm-11 0h-9v-5h9v5zm-11 0h-9v-5h9v5zm-4 2h9v5h-9v-5zm6 7h9v5h-9v-5zm11 0h9v5h-9v-5zm11 0h9v5h-9v-5zm11 0H55v5h-2.996v-5zm-50-33H55v17H2.004v-17zm0 26h9v5h-9v-5zm0 19v-5h9v5h-9zm11 0v-5h9v5h-9zm11 0v-5h9v5h-9zm11 0v-5h9v5h-9zm11 0v-5H55v5h-8.996z"/><path d="M5.004 15.002a.997.997 0 0 0 .707-.293l5-5a.999.999 0 1 0-1.414-1.414l-5 5a.999.999 0 0 0 .707 1.707zM18.711 7.295a.999.999 0 0 0-1.414 0l-13 13a.999.999 0 1 0 1.414 1.414l13-13a.999.999 0 0 0 0-1.414z"/></svg>

<?xml version="1.0" encoding="iso-8859-1"?>
<!-- Generator: Adobe Illustrator 18.0.0, SVG Export Plug-In . SVG Version: 6.00 Build 0)  -->
<!DOCTYPE svg PUBLIC "-//W3C//DTD SVG 1.1//EN" "http://www.w3.org/Graphics/SVG/1.1/DTD/svg11.dtd">
<svg version="1.1" id="Capa_1" xmlns="http://www.w3.org/2000/svg" xmlns:xlink="http://www.w3.org/1999/xlink" x="0px" y="0px"
	 viewBox="0 0 57.004 57.004" style="enable-background:new 0 0 57.004 57.004;" xml:space="preserve">
<g>
	<path d="M57,23.002v-19H0.004v19H0v9h0.004v5H0v9h0.004v7h11h2h9h2h9h2h9h2H57h0.004v-7v-2v-5v-2v-5v-2v-7H57z M2.004,39.002h4v5
		h-4V39.002z M8.004,39.002h3h2h4v5h-4h-2h-3V39.002z M2.004,25.002h4v5h-4V25.002z M24.004,32.002h4h2h3v5h-3h-2h-4V32.002z
		 M35.004,32.002h4h2h3v5h-3h-2h-4V32.002z M46.004,32.002h4h2H55v5h-2.996h-2h-4V32.002z M52.004,30.002v-5H55v5H52.004z
		 M50.004,30.002h-4h-2h-3v-5h9V30.002z M39.004,30.002h-4h-2h-3v-5h9V30.002z M28.004,30.002h-4h-2h-3v-5h9V30.002z M17.004,30.002
		h-4h-2h-3v-5h9V30.002z M13.004,32.002h4h2h3v5h-3h-2h-4V32.002z M19.004,39.002h3h2h4v5h-4h-2h-3V39.002z M30.004,39.002h3h2h4v5
		h-4h-2h-3V39.002z M41.004,39.002h3h2h4v5h-4h-2h-3V39.002z M52.004,39.002H55v5h-2.996V39.002z M2.004,6.002H55v17h-2.996h-2h-9
		h-2h-9h-2h-9h-2h-9h-2h-4V6.002z M2.004,32.002h4h2h3v5h-3h-2h-4V32.002z M2.004,51.002v-5h4h2h3v5H2.004z M13.004,51.002v-5h4h2h3
		v5H13.004z M24.004,51.002v-5h4h2h3v5H24.004z M35.004,51.002v-5h4h2h3v5H35.004z M46.004,51.002v-5h4h2H55v5H46.004z"/>
	<path d="M5.004,15.002c0.256,0,0.512-0.098,0.707-0.293l5-5c0.391-0.391,0.391-1.023,0-1.414s-1.023-0.391-1.414,0l-5,5
		c-0.391,0.391-0.391,1.023,0,1.414C4.492,14.904,4.748,15.002,5.004,15.002z"/>
	<path d="M18.711,7.295c-0.391-0.391-1.023-0.391-1.414,0l-13,13c-0.391,0.391-0.391,1.023,0,1.414
		c0.195,0.195,0.451,0.293,0.707,0.293s0.512-0.098,0.707-0.293l13-13C19.102,8.318,19.102,7.686,18.711,7.295z"/>
</g>
<g>
</g>
<g>
</g>
<g>
</g>
<g>
</g>
<g>
</g>
<g>
</g>
<g>
</g>
<g>
</g>
<g>
</g>
<g>
</g>
<g>
</g>
<g>
</g>
<g>
</g>
<g>
</g>
<g>
</g>
</svg>
